Dominus_Dark_Funeral/scalable/mimes/audio-midi.svg

<svg xmlns="http://www.w3.org/2000/svg" xmlns:xlink="http://www.w3.org/1999/xlink" width="48" height="48" viewBox="0 0 12.7 12.7"><defs><linearGradient xlink:href="#a" id="b" x1="7.11" y1="24" x2="35.45" y2="40.15" gradientUnits="userSpaceOnUse"/><linearGradient id="a"><stop offset="0" stop-color="#2c5aa0"/><stop offset=".2" stop-color="#3771c8"/><stop offset=".33" stop-color="#2c5aa0"/><stop offset=".44" stop-color="#3771c8"/><stop offset=".57" stop-color="#3771c8"/><stop offset=".76" stop-color="#5f8dd3"/><stop offset="1" stop-color="#3771c8"/></linearGradient></defs><path d="M40.89 17.42l-7.83 30.55H14.94L7.11 17.42 13.01.03H35z" fill="url(#b)" transform="scale(.26458)"/><path d="M4.84 11.59l-.89 1.1h4.8l-.89-1.1z" fill="#162d50" fill-opacity=".1"/><path d="M7.86 11.59l.89 1.1 2.07-8.09-1.18.05z" fill="#162d50" fill-opacity=".47"/><path d="M3.44 0l.82 1.1h4.18L9.26 0z" fill="#162d50" fill-opacity=".35"/><path d="M10.82 4.6L9.26 0l-.82 1.1 1.2 3.55z" fill="#162d50" fill-opacity=".71"/><path d="M4.84 11.59l-.89 1.1L1.88 4.6l1.18.05z" fill="#162d50" fill-opacity=".47"/><path d="M1.88 4.6L3.44 0l.82 1.1-1.2 3.55z" fill="#162d50" fill-opacity=".71"/><path d="M6.65 11.59h1.21l.23-.87zm-1.61 0h1.5l1.57-.95.22-.87c-.03-.04-.05-.1-.1-.1l-.06.02zm-.39-.74l.19.74h.1l3.2-1.94c.1-.06.04-.13-.01-.22l-.2-.33c-.04-.07-.07-.14-.12-.14-.02 0-.04 0-.07.02zm-.22-.84l.2.79 3.08-1.87c.1-.05.04-.12-.01-.21l-.2-.34c-.04-.06-.07-.13-.13-.13l-.06.02zm-.21-.84l.2.79 2.86-1.74c.1-.06.04-.12-.01-.22l-.2-.33c-.04-.06-.07-.13-.13-.13l-.06.02zM4 8.33l.2.78 2.65-1.6c.1-.06.04-.13-.01-.22l-.2-.33c-.04-.07-.07-.13-.13-.13l-.06.02zm-.21-.84l.2.78L6.42 6.8c.1-.06.04-.13-.01-.22l-.2-.33c-.04-.07-.07-.13-.13-.13l-.06.02zm-.22-.84l.2.78L6 6.1c.1-.06.04-.13-.01-.22l-.2-.33c-.04-.07-.07-.13-.13-.13l-.06.02zm-.22-.85l.2.8 2.01-1.22c.1-.06.04-.13-.01-.22l-.2-.33c-.04-.07-.07-.13-.13-.14l-.06.02zm-.21-.83l.2.78 1.8-1.08c.09-.06.03-.13-.02-.22l-.2-.33c-.04-.07-.07-.13-.13-.14L4.73 4zm.17-1.08l-.25.76.06.26 1.58-.95c.1-.06.04-.13-.01-.22l-.2-.33c-.04-.07-.07-.14-.13-.14l-.06.02zm.42-1.22L3.34 3.8l.93-.57c.1-.06.04-.12-.01-.21l-.2-.34c-.04-.06-.07-.13-.13-.13l-.06.02z" fill="#e6e6e6"/><path d="M3.2 5.22l.63-.38-.27-.44-.5.3zm.21.84l.84-.51L4 5.1l-.71.42zm.22.84l1.05-.64-.27-.45-.92.56zm.43 1.67l1.48-.9-.27-.44-1.35.81zm.21.83l1.7-1.02-.27-.44-1.56.94zm.43 1.67L6.82 9.8l-.27-.44-1.98 1.2zm.76.51l1.79-1.08-.27-.44-2.2 1.33.05.2zm1.6 0l.62-.37-.27-.44-1.35.81z" fill="#1a1a1a"/></svg>

<?xml version="1.0" encoding="UTF-8" standalone="no"?>
<svg
   xmlns:dc="http://purl.org/dc/elements/1.1/"
   xmlns:cc="http://creativecommons.org/ns#"
   xmlns:rdf="http://www.w3.org/1999/02/22-rdf-syntax-ns#"
   xmlns:svg="http://www.w3.org/2000/svg"
   xmlns="http://www.w3.org/2000/svg"
   xmlns:xlink="http://www.w3.org/1999/xlink"
   xmlns:sodipodi="http://sodipodi.sourceforge.net/DTD/sodipodi-0.dtd"
   xmlns:inkscape="http://www.inkscape.org/namespaces/inkscape"
   width="48"
   height="48"
   viewBox="0 0 12.7 12.7"
   version="1.1"
   id="svg38"
   sodipodi:docname="audio-midi.svg"
   inkscape:version="0.92.4 (5da689c313, 2019-01-14)">
  <metadata
     id="metadata42">
    <rdf:RDF>
      <cc:Work
         rdf:about="">
        <dc:format>image/svg+xml</dc:format>
        <dc:type
           rdf:resource="http://purl.org/dc/dcmitype/StillImage" />
        <dc:title></dc:title>
      </cc:Work>
    </rdf:RDF>
  </metadata>
  <sodipodi:namedview
     pagecolor="#ffffff"
     bordercolor="#666666"
     borderopacity="1"
     objecttolerance="10"
     gridtolerance="10"
     guidetolerance="10"
     inkscape:pageopacity="0"
     inkscape:pageshadow="2"
     inkscape:window-width="1112"
     inkscape:window-height="480"
     id="namedview40"
     showgrid="false"
     inkscape:zoom="4.9166667"
     inkscape:cx="2.1355932"
     inkscape:cy="24"
     inkscape:window-x="0"
     inkscape:window-y="25"
     inkscape:window-maximized="0"
     inkscape:current-layer="svg38" />
  <defs
     id="defs18">
    <linearGradient
       xlink:href="#a"
       id="b"
       x1="7.11"
       y1="24"
       x2="35.45"
       y2="40.15"
       gradientUnits="userSpaceOnUse"
       gradientTransform="scale(0.26458)" />
    <linearGradient
       id="a">
      <stop
         offset="0"
         stop-color="#2c5aa0"
         id="stop3" />
      <stop
         offset=".2"
         stop-color="#3771c8"
         id="stop5" />
      <stop
         offset=".33"
         stop-color="#2c5aa0"
         id="stop7" />
      <stop
         offset=".44"
         stop-color="#3771c8"
         id="stop9" />
      <stop
         offset=".57"
         stop-color="#3771c8"
         id="stop11" />
      <stop
         offset=".76"
         stop-color="#5f8dd3"
         id="stop13" />
      <stop
         offset="1"
         stop-color="#3771c8"
         id="stop15" />
    </linearGradient>
  </defs>
  <path
     d="M 10.818677,4.6089836 8.7470148,12.691903 H 3.9528252 L 1.8811638,4.6089836 3.4421858,0.0079374 H 9.2603 Z"
     id="path20"
     style="fill:url(#b);stroke-width:0.26458001"
     inkscape:connector-curvature="0" />
  <path
     d="m 4.84,11.59 -0.89,1.1 h 4.8 l -0.89,-1.1 z"
     id="path22"
     inkscape:connector-curvature="0"
     style="fill:#162d50;fill-opacity:0.1" />
  <path
     d="M 7.86,11.59 8.75,12.69 10.82,4.6 9.64,4.65 Z"
     id="path24"
     inkscape:connector-curvature="0"
     style="fill:#162d50;fill-opacity:0.47000002" />
  <path
     d="M 3.44,0 4.26,1.1 H 8.44 L 9.26,0 Z"
     id="path26"
     inkscape:connector-curvature="0"
     style="fill:#162d50;fill-opacity:0.35" />
  <path
     d="M 10.82,4.6 9.26,0 8.44,1.1 9.64,4.65 Z"
     id="path28"
     inkscape:connector-curvature="0"
     style="fill:#162d50;fill-opacity:0.70999995" />
  <path
     d="M 4.84,11.59 3.95,12.69 1.88,4.6 3.06,4.65 Z"
     id="path30"
     inkscape:connector-curvature="0"
     style="fill:#162d50;fill-opacity:0.47000002" />
  <path
     d="M 1.88,4.6 3.44,0 4.26,1.1 3.06,4.65 Z"
     id="path32"
     inkscape:connector-curvature="0"
     style="fill:#162d50;fill-opacity:0.70999995" />
  <path
     d="m 6.65,11.59 h 1.21 l 0.23,-0.87 z m -1.61,0 h 1.5 L 8.11,10.64 8.33,9.77 C 8.3,9.73 8.28,9.67 8.23,9.67 L 8.17,9.69 Z m -0.39,-0.74 0.19,0.74 h 0.1 L 8.14,9.65 C 8.24,9.59 8.18,9.52 8.13,9.43 L 7.93,9.1 C 7.89,9.03 7.86,8.96 7.81,8.96 c -0.02,0 -0.04,0 -0.07,0.02 z M 4.43,10.01 4.63,10.8 7.71,8.93 C 7.81,8.88 7.75,8.81 7.7,8.72 L 7.5,8.38 C 7.46,8.32 7.43,8.25 7.37,8.25 L 7.31,8.27 Z M 4.22,9.17 4.42,9.96 7.28,8.22 C 7.38,8.16 7.32,8.1 7.27,8 L 7.07,7.67 C 7.03,7.61 7,7.54 6.94,7.54 L 6.88,7.56 Z M 4,8.33 4.2,9.11 6.85,7.51 C 6.95,7.45 6.89,7.38 6.84,7.29 L 6.64,6.96 C 6.6,6.89 6.57,6.83 6.51,6.83 L 6.45,6.85 Z M 3.79,7.49 3.99,8.27 6.42,6.8 C 6.52,6.74 6.46,6.67 6.41,6.58 L 6.21,6.25 C 6.17,6.18 6.14,6.12 6.08,6.12 L 6.02,6.14 Z M 3.57,6.65 3.77,7.43 6,6.1 C 6.1,6.04 6.04,5.97 5.99,5.88 L 5.79,5.55 C 5.75,5.48 5.72,5.42 5.66,5.42 L 5.6,5.44 Z M 3.35,5.8 3.55,6.6 5.56,5.38 C 5.66,5.32 5.6,5.25 5.55,5.16 L 5.35,4.83 C 5.31,4.76 5.28,4.7 5.22,4.69 L 5.16,4.71 Z M 3.14,4.97 3.34,5.75 5.14,4.67 C 5.23,4.61 5.17,4.54 5.12,4.45 L 4.92,4.12 C 4.88,4.05 4.85,3.99 4.79,3.98 L 4.73,4 Z M 3.31,3.89 3.06,4.65 3.12,4.91 4.7,3.96 C 4.8,3.9 4.74,3.83 4.69,3.74 L 4.49,3.41 C 4.45,3.34 4.42,3.27 4.36,3.27 L 4.3,3.29 Z M 3.73,2.67 3.34,3.8 4.27,3.23 C 4.37,3.17 4.31,3.11 4.26,3.02 L 4.06,2.68 C 4.02,2.62 3.99,2.55 3.93,2.55 L 3.87,2.57 Z"
     id="path34"
     inkscape:connector-curvature="0"
     style="fill:#e6e6e6" />
  <path
     d="M 3.2,5.22 3.83,4.84 3.56,4.4 3.06,4.7 Z M 3.41,6.06 4.25,5.55 4,5.1 3.29,5.52 Z M 3.63,6.9 4.68,6.26 4.41,5.81 3.49,6.37 Z M 4.06,8.57 5.54,7.67 5.27,7.23 3.92,8.04 Z M 4.27,9.4 5.97,8.38 5.7,7.94 4.14,8.88 Z M 4.7,11.07 6.82,9.8 6.55,9.36 4.57,10.56 Z m 0.76,0.51 1.79,-1.08 -0.27,-0.44 -2.2,1.33 0.05,0.2 z m 1.6,0 0.62,-0.37 -0.27,-0.44 -1.35,0.81 z"
     id="path36"
     inkscape:connector-curvature="0"
     style="fill:#1a1a1a" />
</svg>
